svg/OSM-icons/man_made #fabe0b °373737 !label=enman made,deKünstliches/22102;man_made=lamp;!#lamp..type=signal_lamp;[lamp];!label=ensignal lamp,deSignal- lampe.svg

<svg xmlns="http://www.w3.org/2000/svg" viewBox="0 0 580 580" enable-background="new 0 0 580 580"><path fill="#111" stroke="#eee" stroke-width="3.408" d="m66.28 1.768c-41.34 0-64.57 21.371-64.57 65.04v450.12c0 40.844 20.894 62.23 62.19 62.23h452.02c41.31 0 62.23-20.316 62.23-62.23v-450.12c0-42.601-20.923-65.04-63.52-65.04-.003 0-448.49-.143-448.35 0z"/><g fill="#fff"><circle cx="290" cy="207.64" r="143.22"/><path d="m505.5 162.64h-39c-2.989 0-5.592 1.643-6.965 4.073-18.465-76.48-87.47-133.47-169.54-133.47-82.07 0-151.07 56.989-169.53 133.47-1.373-2.429-3.976-4.072-6.965-4.072h-39c-4.418 0-8 3.582-8 8v74c0 4.418 3.582 8 8 8h19.5v175.08l121.04 121.04-113.42-296.13h11.875c2.99 0 5.592-1.643 6.965-4.073 18.464 76.48 87.46 133.47 169.53 133.47 82.07 0 151.07-56.989 169.53-133.47 1.373 2.43 3.976 4.073 6.965 4.073h11.875l-113.42 296.13 121.04-121.04v-175.08h19.5c4.418 0 8-3.582 8-8v-74c0-4.419-3.582-8-8-8m-215.5 207.6c-89.66 0-162.6-72.943-162.6-162.6s72.944-162.6 162.6-162.6 162.6 72.943 162.6 162.6-72.944 162.6-162.6 162.6"/></g></svg>

<?xml version="1.0" encoding="utf-8"?>
<!-- Generator: Adobe Illustrator 15.0.0, SVG Export Plug-In . SVG Version: 6.00 Build 0)  -->
<!DOCTYPE svg PUBLIC "-//W3C//DTD SVG 1.1//EN" "http://www.w3.org/Graphics/SVG/1.1/DTD/svg11.dtd">
<svg version="1.1" xmlns="http://www.w3.org/2000/svg" xmlns:xlink="http://www.w3.org/1999/xlink" x="0px" y="0px" width="580px"
	 height="580px" viewBox="0 0 580 580" enable-background="new 0 0 580 580" xml:space="preserve">
<g id="Layer_2">
	<g id="g1327">
		<path id="path1329" fill="#111111" stroke="#EEEEEE" stroke-width="3.408" d="M66.275,1.768
			c-41.335,0-64.571,21.371-64.571,65.036v450.123c0,40.844,20.894,62.229,62.192,62.229H515.92
			c41.307,0,62.229-20.316,62.229-62.229V66.804c0-42.601-20.923-65.036-63.522-65.036C514.624,1.768,66.133,1.625,66.275,1.768z"/>
	</g>
</g>
<g id="Layer_3">
	<g>
		<circle fill="#FFFFFF" cx="290" cy="207.636" r="143.225"/>
		<path fill="#FFFFFF" d="M505.5,162.636h-39c-2.989,0-5.592,1.643-6.965,4.073C441.07,90.228,372.07,33.238,290,33.238
			c-82.071,0-151.07,56.989-169.535,133.47c-1.373-2.429-3.976-4.072-6.965-4.072h-39c-4.418,0-8,3.582-8,8v74c0,4.418,3.582,8,8,8
			H94v175.082l121.044,121.044L101.625,252.636H113.5c2.99,0,5.592-1.643,6.965-4.073c18.464,76.481,87.464,133.47,169.535,133.47
			c82.071,0,151.07-56.989,169.535-133.47c1.373,2.43,3.976,4.073,6.965,4.073h11.875L364.956,548.762L486,427.718V252.636h19.5
			c4.418,0,8-3.582,8-8v-74C513.5,166.217,509.918,162.636,505.5,162.636z M290,370.238c-89.659,0-162.603-72.943-162.603-162.603
			S200.341,45.033,290,45.033s162.603,72.943,162.603,162.603S379.659,370.238,290,370.238z"/>
	</g>
</g>
</svg>
